X: 20290
T: John Allan's
R: jig
M: 6/8
K: Amajor
|:EEE A3|cBA e3|fea fea|fec B2c|
EEE A3|cBA e3|fea fea|fec A3:|
|:AAA a3|fef a3|fea fea|fec B2c|
[1 AAA a3|fef a3|fea fea|fec A3:|
[2 EEE A3|cBA e3|fea fea|fec A3||

